X:1
T: The Constant Lover
N:
C:
S:aka  The Faithful Swain
A:
O:
R:
M:4/4
K:G
I:speed 200
%W: A1
% voice 1 (1 lines, 42 notes)
K:G
M:4/4
L:1/16
d2 c2 |B2 c2 d2 e2 d2 c2 B2 A2 |G4 G4 G4 g4 |f4 e4 f4 g4 |a8 A8 |B2 c2 d2 e2 d2 c2 B2 A2 |G4 G4 G4 g4 |f2 a2 d4 e2 g2 f2 a2 |g12 d2 c2 |
%W: A2
% voice 1 (1 lines, 40 notes)
B2 c2 d2 e2 d2 c2 B2 A2 |G4 G4 G4 g4 |f4 e4 f4 g4 |a8 A8 |B2 c2 d2 e2 d2 c2 B2 A2 |G4 G4 G4 g4 |f2 a2 d4 e2 g2 f2 a2 |g12 a2 g2 |
%W: B1
% voice 1 (1 lines, 43 notes)
f2 g2 a2 b2 a2 g2 f2 e2 |d4 d4 d4 f4 |g4 a4 b4 a2 b2 |c'12 b4 |a2 b2 a2 g2 f2 g2 f2 e2 |d2 e2 d2 c2 B4 d4 |e4 d2 f2 e2 g2 f2 a2 |g12 a2 g2 |
%W: B2
% voice 1 (1 lines, 41 notes)
f2 g2 a2 b2 a2 g2 f2 e2 |d4 d4 d4 f4 |g4 a4 b4 a2 b2 |c'12 b4 |a2 b2 a2 g2 f2 g2 f2 e2 |d2 e2 d2 c2 B4 d4 |e4 d2 f2 e2 g2 f2 a2 |g12 ||
